X:1
T:Path of the Wind
T:Path of the Wind
T:My Neighbour Totoro
T:Joe Hisaishi
C:Joe Hisaishi
L:1/8
Q:1/4=80
M:4/4
K:Eb
V:1 alto nm="Viola" snm="Vla."
V:1
 C,[Q:1/4=80]E, |: F,2 F,G, E,2 C,E, | F,2 F,B, G,2 G,B, | CCCE DCB,A, | G,2 F,C, G,2 C,E, | %5
 F,2 F,G, E,2 C,E, | F,2 F,B, G,2 G,B, | CCCE DCB,C, |1 E,6 z2 :| E,8 | z2 z2 z2 C,E, | %11
[K:Ab] DEDC D4- | D3 D EDCB, | CD E6- | E4- E2 =D2 | DEDC D4- | D2 D E2 DEF | GAB E3 CB, | C6 CE | %19
[K:Eb] F2 FG E2 CE | F2 FB G2 GB | ccce dcBA | G2 FC G2 CE | F2 FG E2 CE | F2 FB G2 GB | %25
 ccce dcGC | E6 z2 | z2 z2 z2 z C/E/ | F/E/C/B,/- B,/C/E/F/- F/E/C/ z/ CE, | %29
 F/E/C/B,/- B,/C/E/F/- F/E/C z G,/B,/ | C/E/C/E/- EC FG E/D/B, | C4 z2 z C/E/ | %32
 F/E/C/B,/- B,/C/E/F/- F/E/C/ z/ cE | F/E/C/B,/- B,/C/E/F/- F/E/C z G/B/ | c/e/c/e/- ec fg e/d/B | %35
"^Andante" c8 | z2 z2 E2 D2 |"^Allegro" _DEDC D4 | _D3 D EDCB, | C_D E6 | E4 E2 D2 | _DEDC D4 | %42
 _D2 D E2 DEF | GAB E3 CB, |[M:3/4] C6 |[M:4/4] z2 z2 z2 CE | F2 FG E2 CE | F2 FB G2 GB | %48
 ccce dcBA | G2 FC G2 CE | F2 FG E2 CE | F2 FB G2 GB | ccce dcGC | E6 CE | %54
 (F/G/F/E/) (D/E/D/C/) (B,/C/B,/A,/) (G,/A,/G,/F,/) | %55
 (E,/F,/E,/D,/) (E,/F,/B,/A,/) (G,/A,/B,/A,/) (G,/A,/B,/E/) | %56
 (F/G/F/C/) (D/E/D/C/) (D/E/F/G/) (A/B/c/d/) | G!turn!G/F/ G2 z/ (G,/=A,/=B,/) (C/D/E/F/) | %58
 (F/G/F/E/) (C/D/C/B,/) (A,/B,/A,/G,/) (E,/F,/E,/D,/) | %59
 (F/G/F/E/) (C/D/C/B,/) (A,/B,/A,/G,/) (E,/F,/E,/D,/) | (F/G/F/E/) (G/A/G/F/) G,2 B,2 | C6 CE | %62
 F3 F3 G2 | E6 CE | F3 F3 B2 | G6 c2 | g8 |] %67

